X: 28760
T: My Laddie Sits Ower Late Up
R: slip jig
M: 9/8
K: Gmajor
|:e|dBG BdB G2 e|dBG dB/c/d/B/ A2 e|
dBG dB/c/d/B/ GAB|c>d/e/f/ gdB A2:|
|:g|fef gdB G2 g|fef gdB A2 g|
fef gdB GAB|c>d/e/f/ gdB A2:|

